src/pos-icons/view-column.svg

<svg height="24" viewBox="0 0 24 24" width="24" xmlns="http://www.w3.org/2000/svg"><path d="m16 5v13h5v-13m-17 13h5v-13h-5m6 13h5v-13h-5z"/></svg>

<?xml version="1.0" encoding="UTF-8"?><!DOCTYPE svg PUBLIC "-//W3C//DTD SVG 1.1//EN" "http://www.w3.org/Graphics/SVG/1.1/DTD/svg11.dtd"><svg xmlns="http://www.w3.org/2000/svg" xmlns:xlink="http://www.w3.org/1999/xlink" version="1.1" id="mdi-view-column" width="24" height="24" viewBox="0 0 24 24"><path d="M16,5V18H21V5M4,18H9V5H4M10,18H15V5H10V18Z" /></svg>
